public/assets/gas4.svg

<svg width="75" height="113" viewBox="0 0 75 113" fill="none" xmlns="http://www.w3.org/2000/svg">
<path d="M74.9998 15.7959H-0.000244141V112.809H74.9998V15.7959Z" fill="url(#paint0_linear_57_271)"/>
<path d="M69.4036 19.9922H5.59985V95.4092H69.4036V19.9922Z" fill="#FEF7EC"/>
<path d="M64.2595 26.082H10.7549V89.3171H64.2595V26.082Z" fill="#F7F9FC"/>
<path d="M67.1785 68.8201H66.8121C66.4709 68.8201 66.1928 68.5295 66.1928 68.163L65.4473 47.2489C65.4473 46.8824 65.7253 46.5918 66.0665 46.5918H67.9115C68.2527 46.5918 68.5307 46.8824 68.5307 47.2489L67.7851 68.163C67.7977 68.5168 67.5197 68.8201 67.1785 68.8201Z" fill="#062023"/>
<g clip-path="url(#clip0_57_271)">
<path d="M42.7917 78.3865C42.4011 78.5942 41.9891 78.1445 42.2282 77.7723C43.5263 75.752 44.7555 72.3525 42.7971 67.9743C39.5312 60.6732 37.5439 56.8918 37.5439 56.8918C37.5439 56.8918 36.4869 61.3047 33.6215 65.2284C30.8638 69.0046 29.3543 73.754 31.7878 77.7105C32.0162 78.0818 31.6135 78.5199 31.2254 78.3213C28.2132 76.7805 24.8346 73.6896 24.4534 67.5389C24.3129 65.6594 24.5237 63.0281 25.5777 59.7077C26.9329 55.4993 28.599 53.5356 29.563 52.6923C29.8513 52.44 30.2998 52.6636 30.2761 53.046C29.9952 57.5868 31.7035 58.7391 32.6758 56.1423C33.0642 55.105 33.2906 53.311 33.2906 51.1263C33.2906 47.489 34.3459 43.7448 36.6724 40.7023C37.2774 39.9111 37.9853 39.1717 38.7975 38.5413C39.0915 38.313 39.5177 38.5424 39.4908 38.9137C39.3122 41.3794 39.474 48.446 45.6737 56.8884C51.2949 64.7196 49.1167 70.734 48.3438 72.3629C46.866 75.4836 44.8048 77.3162 42.7917 78.3865Z" fill="#009D8F"/>
</g>
<path d="M47.7558 0H27.2588V15.7961H47.7558V0Z" fill="url(#paint1_linear_57_271)"/>
<defs>
<linearGradient id="paint0_linear_57_271" x1="-5.50166" y1="21.2952" x2="80.5064" y2="107.303" gradientUnits="userSpaceOnUse">
<stop offset="0.00249518" stop-color="#28C985"/>
<stop offset="1" stop-color="#18808A"/>
</linearGradient>
<linearGradient id="paint1_linear_57_271" x1="28.4301" y1="-1.17656" x2="46.5772" y2="16.9706" gradientUnits="userSpaceOnUse">
<stop offset="0.00249518" stop-color="#28C985"/>
<stop offset="1" stop-color="#18808A"/>
</linearGradient>
<clipPath id="clip0_57_271">
<rect width="39.9888" height="39.9888" fill="white" transform="matrix(-1 0 0 1 56.9067 38.4507)"/>
</clipPath>
</defs>
</svg>

<svg width="75" height="113" fill="none" xmlns="http://www.w3.org/2000/svg"><path d="M75 15.796H0v97.013h75V15.796z" fill="url(#a)"/><path d="M69.404 19.992H5.6V95.41h63.804V19.992z" fill="#FEF7EC"/><path d="M64.26 26.082H10.755v63.235H64.26V26.082z" fill="#F7F9FC"/><path d="M67.178 68.82h-.366c-.341 0-.62-.29-.62-.657l-.745-20.914c0-.367.278-.657.62-.657h1.845c.34 0 .619.29.619.657l-.746 20.914c.013.354-.265.657-.606.657z" fill="#062023"/><g clip-path="url(#b)"><path d="M42.792 78.386c-.39.208-.803-.242-.564-.614 1.298-2.02 2.527-5.42.57-9.798-3.267-7.3-5.254-11.082-5.254-11.082s-1.057 4.413-3.922 8.336c-2.758 3.777-4.268 8.526-1.834 12.483.228.37-.175.809-.563.61-3.012-1.54-6.39-4.631-6.772-10.782-.14-1.88.07-4.51 1.125-7.831 1.355-4.209 3.021-6.172 3.985-7.016a.431.431 0 0 1 .713.354c-.28 4.54 1.427 5.693 2.4 3.096.388-1.037.615-2.831.615-5.016 0-3.637 1.055-7.381 3.381-10.424a11.803 11.803 0 0 1 2.126-2.16.431.431 0 0 1 .693.372c-.179 2.465-.017 9.532 6.183 17.974 5.62 7.832 3.443 13.846 2.67 15.475-1.478 3.12-3.54 4.953-5.552 6.023z" fill="#009D8F"/></g><path d="M47.756 0H27.259v15.796h20.497V0z" fill="url(#c)"/><defs><linearGradient id="a" x1="-5.502" y1="21.295" x2="80.506" y2="107.303" gradientUnits="userSpaceOnUse"><stop offset=".002" stop-color="#28C985"/><stop offset="1" stop-color="#18808A"/></linearGradient><linearGradient id="c" x1="28.43" y1="-1.177" x2="46.577" y2="16.971" gradientUnits="userSpaceOnUse"><stop offset=".002" stop-color="#28C985"/><stop offset="1" stop-color="#18808A"/></linearGradient><clipPath id="b"><path fill="#fff" transform="matrix(-1 0 0 1 56.907 38.45)" d="M0 0h39.989v39.989H0z"/></clipPath></defs></svg>
